img/useCases/Online Shopping.svg

<svg width="94" height="94" viewBox="0 0 94 94" fill="none" xmlns="http://www.w3.org/2000/svg">
<path d="M93.8002 47.0001C93.8002 72.8471 72.8471 93.8002 47.0001 93.8002C21.1531 93.8002 0.2 72.8471 0.2 47.0001C0.2 21.1531 21.1531 0.2 47.0001 0.2C72.8471 0.2 93.8002 21.1531 93.8002 47.0001Z" fill="#F9FBFF" stroke="#0037FC" stroke-width="0.4"/>
<path d="M19 25H76V61.4167H19V25Z" fill="#0037FC"/>
<path d="M39.6654 61.4897H58.5664V68.2615H39.6654V61.4897Z" fill="#0037FC"/>
<path d="M36.4364 68.2922H61.7935V70.1724H36.4364V68.2922Z" fill="#0037FC"/>
<path d="M45.05 40.0084H44.9493C45.0209 39.6807 45.0547 39.3452 45.05 39.009C45.0903 38.4733 45.0197 37.9347 44.843 37.4305C44.6663 36.9262 44.3877 36.4683 44.0265 36.0883C43.6653 35.7083 43.2299 35.4152 42.7506 35.2293C42.2713 35.0434 41.7593 34.9692 41.25 35.0116C39.1942 35.0116 37.4795 37.2811 36.5 38.9371C35.5205 37.2811 33.8058 35.0116 31.75 35.0116C31.2407 34.9692 30.7287 35.0434 30.2494 35.2293C29.7701 35.4152 29.3347 35.7083 28.9735 36.0883C28.6123 36.4683 28.3337 36.9262 28.157 37.4305C27.9803 37.9347 27.9097 38.4733 27.95 39.009C27.9453 39.3452 27.9791 39.6807 28.0507 40.0084H27.95C27.698 40.0084 27.4564 40.1137 27.2782 40.3011C27.1001 40.4885 27 40.7427 27 41.0077V44.0058C27 44.2708 27.1001 44.525 27.2782 44.7125C27.4564 44.8999 27.698 45.0052 27.95 45.0052H35.55V42.0071H37.45V45.0052H45.05C45.302 45.0052 45.5436 44.8999 45.7218 44.7125C45.8999 44.525 46 44.2708 46 44.0058V41.0077C46 40.7427 45.8999 40.4885 45.7218 40.3011C45.5436 40.1137 45.302 40.0084 45.05 40.0084ZM32.2782 40.0084C29.85 40.0084 29.85 39.6086 29.85 39.009C29.85 37.2172 30.9349 37.0103 31.75 37.0103C32.8074 37.0103 34.048 38.5923 34.8926 40.0084H32.2782ZM40.7218 40.0084H38.1074C38.952 38.5923 40.1974 37.0103 41.25 37.0103C42.0651 37.0103 43.15 37.2172 43.15 39.009C43.15 39.6086 43.15 40.0084 40.7218 40.0084ZM37.45 47.0039H44.1V52.0006C44.1 52.2657 43.9999 52.5199 43.8218 52.7073C43.6436 52.8947 43.402 53 43.15 53H29.85C29.598 53 29.3564 52.8947 29.1782 52.7073C29.0001 52.5199 28.9 52.2657 28.9 52.0006V47.0039H35.55V51.0013H37.45V47.0039Z" fill="white"/>
<path d="M65.0404 41.125L61.875 34H60.2904L63.4559 41.125H65.0404ZM58.7096 34H57.125L53.9596 41.125H55.5441L58.7096 34ZM51.5846 51.4154C51.5846 52.2875 52.2934 53 53.1691 53H65.8346C66.7066 53 67.4191 52.2912 67.4191 51.4154L68.2096 44.2904H50.7904L51.5846 51.4154ZM63.4596 45.875H65.0441L64.25 51.4154H62.6654L63.4596 45.875ZM58.7096 45.875H60.2941V51.4154H58.7096V45.875ZM55.5404 45.875L56.3309 51.4154H54.75L53.9596 45.875H55.5404ZM68.2096 41.9154H50.7904C50.3525 41.9154 50 42.2717 50 42.7096V43.5H69V42.7096C69 42.2717 68.6475 41.9154 68.2096 41.9154Z" fill="white"/>
<path d="M62.7372 56.7372L77.9896 61.2097L74.2625 64.9368L73.909 65.2904L74.2625 65.6439L78.2929 69.6743L75.6743 72.2929L71.6439 68.2625L71.2904 67.909L70.9369 68.2625L67.2093 71.9897L62.7372 56.7372Z" fill="white" stroke="#1C4EFF"/>
</svg>

<svg width="94" height="94" fill="none" xmlns="http://www.w3.org/2000/svg"><path d="M93.8 47c0 25.847-20.953 46.8-46.8 46.8C21.153 93.8.2 72.847.2 47 .2 21.153 21.153.2 47 .2 72.847.2 93.8 21.153 93.8 47z" fill="#F9FBFF" stroke="#0037FC" stroke-width=".4"/><path d="M19 25h57v36.417H19V25zm20.665 36.49h18.901v6.771h-18.9V61.49zm-3.229 6.802h25.358v1.88H36.436v-1.88z" fill="#0037FC"/><path d="M45.05 40.008h-.1c.07-.327.105-.663.1-.999a3.894 3.894 0 00-.207-1.578 3.744 3.744 0 00-.817-1.343 3.517 3.517 0 00-1.275-.859 3.372 3.372 0 00-1.501-.217c-2.056 0-3.77 2.27-4.75 3.925-.98-1.656-2.694-3.925-4.75-3.925a3.372 3.372 0 00-1.5.217c-.48.186-.915.48-1.276.86-.362.38-.64.837-.817 1.342a3.894 3.894 0 00-.207 1.578c-.005.336.03.672.1 1h-.1a.927.927 0 00-.672.292 1.026 1.026 0 00-.278.707v2.998c0 .265.1.519.278.706.178.188.42.293.672.293h7.6v-2.998h1.9v2.998h7.6a.927.927 0 00.672-.293c.178-.187.278-.441.278-.706v-2.998c0-.265-.1-.52-.278-.707a.927.927 0 00-.672-.293zm-12.772 0c-2.428 0-2.428-.4-2.428-.999 0-1.792 1.085-1.999 1.9-1.999 1.057 0 2.298 1.582 3.143 2.998h-2.615zm8.444 0h-2.615c.845-1.416 2.09-2.998 3.143-2.998.815 0 1.9.207 1.9 1.999 0 .6 0 1-2.428 1zm-3.272 6.996h6.65V52c0 .265-.1.519-.278.706a.927.927 0 01-.672.293h-13.3a.927.927 0 01-.672-.293A1.027 1.027 0 0128.9 52v-4.997h6.65V51h1.9v-3.997zm27.59-5.879L61.875 34H60.29l3.166 7.125h1.584zM58.71 34h-1.585l-3.165 7.125h1.584L58.71 34zm-7.125 17.415c0 .873.708 1.585 1.584 1.585h12.666c.872 0 1.584-.709 1.584-1.585l.79-7.125H50.79l.795 7.125zm11.875-5.54h1.584l-.794 5.54h-1.585l.795-5.54zm-4.75 0h1.584v5.54H58.71v-5.54zm-3.17 0l.79 5.54h-1.58l-.79-5.54h1.58zm12.67-3.96H50.79a.792.792 0 00-.79.795v.79h19v-.79a.792.792 0 00-.79-.795z" fill="#fff"/><path d="M62.737 56.737L77.99 61.21l-3.727 3.727-.354.353.353.354 4.03 4.03-2.618 2.619-4.03-4.03-.354-.354-.353.353-3.728 3.728-4.472-15.253z" fill="#fff" stroke="#1C4EFF"/></svg>
